X:1
T:The Jealous Husband Well Fitted
M:4/4
L:1/4
K:F
 C| F G A C| F A z C| F G A B| c2 z A| B A G A| B/2 A/2- A G F| E- c C C|\
 C2 z c| c A A F| F D D d| d B B G| F- E z C| D E F G| A/2 d/2- d c A|\
 G F E/2E/2 C| D2 z||
